src/assets/logo.svg

<?xml version="1.0" encoding="utf-8"?>
<svg id="master-artboard" viewBox="0 0 1449.3291015625 980" version="1.1" xmlns="http://www.w3.org/2000/svg" x="0px" y="0px" style="enable-background:new 0 0 336 235.2;" width="1449.3291015625px" height="980px"><rect id="ee-background" x="0" y="0" width="1449.3291015625" height="980" style="fill: white; fill-opacity: 0; pointer-events: none;"/>




















































































































<path class="st15" d="M297.5,18.5c-0.2,0-0.3-0.1-0.4-0.2l-0.9-1.4l-1.7,0.1c-0.3,0-0.5-0.2-0.5-0.5c0-0.3,0.2-0.5,0.5-0.5&#10;&#9;&#9;&#9;l2.3-0.2l1.2,2c0.1,0.2,0.1,0.5-0.2,0.7C297.6,18.5,297.6,18.5,297.5,18.5z" style="fill: rgb(255, 255, 255);" transform="matrix(4.198465824127197, 0, 0, 4.198465824127197, 26.8253173828125, 56.468017578125)"/><path class="st15" d="M252,19.9c-0.3,0-0.5-0.2-0.5-0.5c0-0.3,0.2-0.5,0.5-0.5l4.2-0.3c0.2,0,0.5,0.2,0.5,0.5&#10;&#9;&#9;&#9;c0,0.3-0.2,0.5-0.5,0.5L252,19.9C252,19.9,252,19.9,252,19.9z M260.5,19.3c-0.3,0-0.5-0.2-0.5-0.5c0-0.3,0.2-0.5,0.5-0.5l4.2-0.3&#10;&#9;&#9;&#9;c0.2,0,0.5,0.2,0.5,0.5c0,0.3-0.2,0.5-0.5,0.5L260.5,19.3C260.5,19.3,260.5,19.3,260.5,19.3z M268.9,18.7c-0.3,0-0.5-0.2-0.5-0.5&#10;&#9;&#9;&#9;c0-0.3,0.2-0.5,0.5-0.5l4.2-0.3c0.2,0,0.5,0.2,0.5,0.5c0,0.3-0.2,0.5-0.5,0.5L268.9,18.7C269,18.7,269,18.7,268.9,18.7z&#10;&#9;&#9;&#9; M277.4,18.1c-0.3,0-0.5-0.2-0.5-0.5c0-0.3,0.2-0.5,0.5-0.5l4.2-0.3c0.2,0,0.5,0.2,0.5,0.5c0,0.3-0.2,0.5-0.5,0.5L277.4,18.1&#10;&#9;&#9;&#9;C277.5,18.1,277.4,18.1,277.4,18.1z M285.9,17.5c-0.3,0-0.5-0.2-0.5-0.5c0-0.3,0.2-0.5,0.5-0.5l4.2-0.3c0.2,0,0.5,0.2,0.5,0.5&#10;&#9;&#9;&#9;c0,0.3-0.2,0.5-0.5,0.5L285.9,17.5C285.9,17.5,285.9,17.5,285.9,17.5z" style="fill: rgb(255, 255, 255);" transform="matrix(4.198465824127197, 0, 0, 4.198465824127197, 26.8253173828125, 56.468017578125)"/><path class="st15" d="M245.7,20.4c-0.3,0-0.5-0.2-0.5-0.5c0-0.3,0.2-0.5,0.5-0.5l2-0.1c0.2,0,0.5,0.2,0.5,0.5&#10;&#9;&#9;&#9;c0,0.3-0.2,0.5-0.5,0.5L245.7,20.4C245.8,20.4,245.7,20.4,245.7,20.4z" style="fill: rgb(255, 255, 255);" transform="matrix(4.198465824127197, 0, 0, 4.198465824127197, 26.8253173828125, 56.468017578125)"/>
































<g transform="matrix(15.730337142944336, 0, 0, 15.730337142944336, 31.825326488096835, 338.10845947265625)"><g fill="#404145"><path d="M 81.6 13.1 L 78.5 13.1 C 76.5 13.1 75.4 14.6 75.4 17.2 L 75.4 26.5 L 69.4 26.5 L 69.4 13.1 L 66.9 13.1 C 64.9 13.1 63.800000000000004 14.6 63.800000000000004 17.2 L 63.800000000000004 26.5 L 57.800000000000004 26.5 L 57.800000000000004 8.100000000000001 L 63.800000000000004 8.100000000000001 L 63.800000000000004 10.900000000000002 C 64.80000000000001 8.700000000000003 66.10000000000001 8.100000000000001 68.10000000000001 8.100000000000001 L 75.4 8.100000000000001 L 75.4 10.900000000000002 C 76.4 8.700000000000003 77.7 8.100000000000001 79.7 8.100000000000001 L 81.7 8.100000000000001 L 81.6 13.1 Z M 56.39999999999999 18.7 L 43.99999999999999 18.7 C 44.29999999999999 20.8 45.599999999999994 21.9 47.699999999999996 21.9 C 49.3 21.9 50.4 21.2 50.8 20.099999999999998 L 56.099999999999994 21.599999999999998 C 54.8 24.799999999999997 51.599999999999994 26.699999999999996 47.699999999999996 26.699999999999996 C 41.199999999999996 26.699999999999996 38.199999999999996 21.599999999999994 38.199999999999996 17.199999999999996 C 38.199999999999996 12.899999999999995 40.8 7.799999999999995 47.3 7.799999999999995 C 54.199999999999996 7.799999999999995 56.5 12.999999999999996 56.5 16.899999999999995 C 56.5 17.799999999999994 56.5 18.299999999999994 56.4 18.699999999999996 L 56.39999999999999 18.7 Z M 50.69999999999999 15.2 C 50.59999999999999 13.6 49.39999999999999 12.2 47.39999999999999 12.2 C 45.49999999999999 12.2 44.39999999999999 13 43.99999999999999 15.2 L 50.69999999999999 15.2 Z M 27.79999999999999 26.5 L 32.99999999999999 26.5 L 39.599999999999994 8.2 L 33.599999999999994 8.2 L 30.399999999999995 18.9 L 27.199999999999996 8.099999999999998 L 21.199999999999996 8.099999999999998 L 27.79999999999999 26.5 Z M 3.3999999999999915 26.5 L 9.299999999999992 26.5 L 9.299999999999992 13.1 L 14.999999999999993 13.1 L 14.999999999999993 26.5 L 20.89999999999999 26.5 L 20.89999999999999 8.100000000000001 L 9.299999999999992 8.100000000000001 L 4.5455320358276285 -12.827144622802733 C 4.5455320358276285 -14.027144622802734 10.199999999999992 5.000000000000002 11.499999999999993 5.000000000000002 L 14.999999999999993 5.000000000000002 L 14.999999999999993 1.7763568394002505e-15 L 10.599999999999993 1.7763568394002505e-15 C 6.299999999999993 1.7763568394002505e-15 3.3999999999999924 2.700000000000002 3.3999999999999924 6.600000000000001 L 3.3999999999999924 8.100000000000001 L -7.549516567451064e-15 8.100000000000001 L -7.549516567451064e-15 13.100000000000001 L 3.3999999999999924 13.100000000000001 L 3.3999999999999915 26.5 Z"/></g><g fill="#1dbf73"><path d="m85.3 27c2 0 3.7-1.7 3.7-3.7s-1.7-3.7-3.7-3.7-3.7 1.7-3.7 3.7 1.7 3.7 3.7 3.7z"/></g></g></svg>

<svg width="89" height="27" viewBox="0 0 89 27" fill="none" xmlns="http://www.w3.org/2000/svg"><g fill="#404145"><path d="m81.6 13.1h-3.1c-2 0-3.1 1.5-3.1 4.1v9.3h-6v-13.4h-2.5c-2 0-3.1 1.5-3.1 4.1v9.3h-6v-18.4h6v2.8c1-2.2 2.3-2.8 4.3-2.8h7.3v2.8c1-2.2 2.3-2.8 4.3-2.8h2zm-25.2 5.6h-12.4c.3 2.1 1.6 3.2 3.7 3.2 1.6 0 2.7-.7 3.1-1.8l5.3 1.5c-1.3 3.2-4.5 5.1-8.4 5.1-6.5 0-9.5-5.1-9.5-9.5 0-4.3 2.6-9.4 9.1-9.4 6.9 0 9.2 5.2 9.2 9.1 0 .9 0 1.4-.1 1.8zm-5.7-3.5c-.1-1.6-1.3-3-3.3-3-1.9 0-3 .8-3.4 3zm-22.9 11.3h5.2l6.6-18.3h-6l-3.2 10.7-3.2-10.8h-6zm-24.4 0h5.9v-13.4h5.7v13.4h5.9v-18.4h-11.6v-1.1c0-1.2.9-2 2.2-2h3.5v-5h-4.4c-4.3 0-7.2 2.7-7.2 6.6v1.5h-3.4v5h3.4z"></path></g><g fill="#1dbf73"><path d="m85.3 27c2 0 3.7-1.7 3.7-3.7s-1.7-3.7-3.7-3.7-3.7 1.7-3.7 3.7 1.7 3.7 3.7 3.7z"></path></g></svg>
